src/images/icon-adv-5.svg

<svg width="80" height="81" viewBox="0 0 80 81" fill="none" xmlns="http://www.w3.org/2000/svg">
<path d="M55.9004 7.99998C55.9004 12.1 52.6004 15.4 48.5004 15.4C44.3004 15.4 41.0004 12 41.1004 7.79998C41.1004 3.69998 44.5004 0.599976 48.6004 0.599976C52.7004 0.599976 56.0004 3.89998 55.9004 7.99998Z" fill="white"/>
<path d="M40.3001 28.8C38.8001 29.7 37.8001 30.9 37.5001 32.6C36.7001 36.5 35.9001 40.4 35.1001 44.2C34.9001 45 34.6001 45.7 33.9001 46.3C33.7001 46.5 33.5001 46.7 33.4001 47C31.0001 55.5 28.5001 64 26.1001 72.5C26.0001 72.8 26.1001 73.2 26.3001 73.4C27.1001 74.6 27.2001 75.9 26.5001 77.2C25.8001 78.4 24.8001 79.1 23.4001 79C21.9001 78.9 20.9001 78.2 20.3001 76.7C20.2001 76.4 19.9001 76.2 19.6001 76.1C17.7001 75.5 15.8001 74.9 13.9001 74.4C12.2001 73.9 11.4001 72.6 11.9001 70.8C13.3001 65.8 14.7001 60.9 16.2001 55.9C16.7001 54 18.0001 53.3 19.8001 53.9C22.8001 54.8 25.7001 55.7 28.8001 56.6C29.7001 53.4 30.7001 50.1 31.6001 46.7C31.3001 46.7 31.0001 46.6 30.7001 46.6C29.2001 46.3 28.3001 45.2 28.5001 43.6C28.9001 41.2 29.3001 38.8 29.7001 36.4C30.2001 33.8 30.6001 31.2 31.1001 28.6C31.4001 27 32.1001 25.8 33.3001 24.7C35.8001 22.5 38.1001 20 40.9001 18.1C44.2001 15.8 50.6001 15.8 54.0001 17.2C55.6001 17.8 56.5001 18.7 57.1001 19.7C60.6001 27.1 64.1001 34.5 67.5001 42C68.3001 43.6 67.9001 45 66.4001 46C66.1001 46.2 65.8001 46.4 65.5001 46.6C64.0001 47.5 62.7001 47.2 61.8001 45.6C61.0001 44.1 60.4001 42.6 59.6001 41.2C58.5001 38.9 57.4001 36.7 56.2001 34.4C56.2001 34.6 56.1001 34.9 56.1001 35.1C56.1001 38.2 56.1001 41.4 56.1001 44.5C56.1001 44.9 56.2001 45.3 56.4001 45.7C57.5001 48.4 58.6001 51 59.6001 53.7C60.8001 57.1 61.0001 60.7 61.5001 64.3C61.9001 67.5 62.3001 70.7 62.7001 73.9C63.2001 78 59.4001 80.2 56.6001 79.5C54.9001 79 54.0001 77.7 53.8001 76C53.3001 71.9 53.0001 67.7 52.5001 63.6C52.2001 61.6 51.7001 59.5 51.1001 57.6C50.3001 55.1 49.2001 52.7 48.1001 50.2C47.9001 50.9 47.6001 51.7 47.4001 52.4C45.1001 59.7 42.8001 67.1 40.5001 74.5C39.5001 77.9 36.4001 79 33.5001 77.4C31.7001 76.4 30.9001 74.4 31.6001 72.3C33.0001 67.9 34.3001 63.5 35.7001 59.1C37.1001 54.7 38.4001 50.3 39.8001 45.9C39.9001 45.6 39.9001 45.3 39.9001 45C39.9001 39.9 39.9001 34.7 39.9001 29.6C40.4001 29.3 40.3001 29.1 40.3001 28.8ZM25.6001 75.5C25.6001 74.4 24.7001 73.5 23.6001 73.5C22.5001 73.5 21.5001 74.6 21.6001 75.6C21.6001 76.7 22.6001 77.6 23.6001 77.6C24.7001 77.6 25.6001 76.6 25.6001 75.5Z" fill="white"/>
</svg>

<svg xmlns="http://www.w3.org/2000/svg" width="80" height="81" fill="none" viewBox="0 0 80 81">
	<path fill="#fff" d="M55.9 8c0 4.1-3.3 7.4-7.4 7.4-4.2 0-7.5-3.4-7.4-7.6 0-4.1 3.4-7.2 7.5-7.2S56 3.9 55.9 8zM40.3 28.8c-1.5.9-2.5 2.1-2.8 3.8-.8 3.9-1.6 7.8-2.4 11.6-.2.8-.5 1.5-1.2 2.1-.2.2-.4.4-.5.7-2.4 8.5-4.9 17-7.3 25.5-.1.3 0 .7.2.9.8 1.2.9 2.5.2 3.8-.7 1.2-1.7 1.9-3.1 1.8-1.5-.1-2.5-.8-3.1-2.3-.1-.3-.4-.5-.7-.6-1.9-.6-3.8-1.2-5.7-1.7-1.7-.5-2.5-1.8-2-3.6 1.4-5 2.8-9.9 4.3-14.9.5-1.9 1.8-2.6 3.6-2 3 .9 5.9 1.8 9 2.7.9-3.2 1.9-6.5 2.8-9.9-.3 0-.6-.1-.9-.1-1.5-.3-2.4-1.4-2.2-3l1.2-7.2c.5-2.6.9-5.2 1.4-7.8.3-1.6 1-2.8 2.2-3.9 2.5-2.2 4.8-4.7 7.6-6.6 3.3-2.3 9.7-2.3 13.1-.9 1.6.6 2.5 1.5 3.1 2.5 3.5 7.4 7 14.8 10.4 22.3.8 1.6.4 3-1.1 4l-.9.6c-1.5.9-2.8.6-3.7-1-.8-1.5-1.4-3-2.2-4.4-1.1-2.3-2.2-4.5-3.4-6.8 0 .2-.1.5-.1.7v9.4c0 .4.1.8.3 1.2 1.1 2.7 2.2 5.3 3.2 8 1.2 3.4 1.4 7 1.9 10.6l1.2 9.6c.5 4.1-3.3 6.3-6.1 5.6-1.7-.5-2.6-1.8-2.8-3.5-.5-4.1-.8-8.3-1.3-12.4-.3-2-.8-4.1-1.4-6-.8-2.5-1.9-4.9-3-7.4-.2.7-.5 1.5-.7 2.2-2.3 7.3-4.6 14.7-6.9 22.1-1 3.4-4.1 4.5-7 2.9-1.8-1-2.6-3-1.9-5.1 1.4-4.4 2.7-8.8 4.1-13.2 1.4-4.4 2.7-8.8 4.1-13.2.1-.3.1-.6.1-.9V29.6c.5-.3.4-.5.4-.8zM25.6 75.5c0-1.1-.9-2-2-2s-2.1 1.1-2 2.1c0 1.1 1 2 2 2 1.1 0 2-1 2-2.1z"/>
</svg>
